Newaita-dark/.DP/16/mailspring-tray-empty.svg

<svg xmlns="http://www.w3.org/2000/svg" xmlns:xlink="http://www.w3.org/1999/xlink" width="16px" height="16px" viewBox="0 0 16 16" version="1.1">
<g id="surface1">
<path style=" stroke:none;fill-rule:nonzero;fill:rgb(93.333334%,93.333334%,93.333334%);fill-opacity:0.392;" d="M 7.9375 1.449219 C 5.542969 1.441406 3.332031 2.734375 2.160156 4.828125 L 7.9375 8.78125 L 13.714844 4.828125 C 12.546875 2.734375 10.335938 1.441406 7.9375 1.449219 Z M 1.738281 5.746094 C 1.460938 6.488281 1.320312 7.273438 1.324219 8.0625 C 1.320312 9.765625 1.972656 11.402344 3.148438 12.632812 L 5.234375 10.0625 C 5.410156 9.855469 5.722656 9.828125 5.933594 10 C 6.144531 10.171875 6.179688 10.480469 6.011719 10.695312 L 3.890625 13.304688 C 5.050781 14.199219 6.472656 14.683594 7.9375 14.679688 C 9.464844 14.679688 10.867188 14.164062 11.984375 13.304688 L 9.867188 10.695312 C 9.632812 10.695312 9.433594 10.535156 9.378906 10.308594 C 9.324219 10.082031 9.433594 9.851562 9.640625 9.746094 C 9.851562 9.644531 10.101562 9.695312 10.25 9.875 C 10.402344 9.875 10.546875 9.945312 10.640625 10.0625 L 12.730469 12.632812 C 13.902344 11.402344 14.558594 9.765625 14.554688 8.0625 C 14.554688 7.246094 14.40625 6.46875 14.140625 5.746094 L 8.21875 9.796875 C 8.050781 9.914062 7.828125 9.914062 7.65625 9.796875 Z M 1.738281 5.746094 "/>
</g>
</svg>

<svg xmlns="http://www.w3.org/2000/svg" width="16pt" height="16pt" viewBox="0 0 16 16"><path d="M7.938 1.45A6.6 6.6 0 0 0 2.16 4.827l5.777 3.953 5.778-3.953A6.6 6.6 0 0 0 7.938 1.45zm-6.2 4.296a6.6 6.6 0 0 0-.414 2.316 6.58 6.58 0 0 0 1.824 4.57l2.086-2.57a.51.51 0 0 1 .38-.187.494.494 0 0 1 .464.281.503.503 0 0 1-.066.54L3.89 13.304a6.614 6.614 0 0 0 4.046 1.375c1.528 0 2.93-.516 4.047-1.375l-2.117-2.61a.496.496 0 1 1 .383-.82c.152 0 .297.07.39.188l2.09 2.57a6.598 6.598 0 0 0 1.825-4.57 6.69 6.69 0 0 0-.414-2.317l-5.922 4.05a.494.494 0 0 1-.563 0zm0 0" fill="#bdbdbd" fill-opacity=".392"/></svg>
